public/assets/tracks/blockchain.svg

<svg fill="none" height="94" viewBox="0 0 94 94" width="94" xmlns="http://www.w3.org/2000/svg" xmlns:xlink="http://www.w3.org/1999/xlink"><mask id="a" height="94" maskUnits="userSpaceOnUse" width="94" x="0" y="0"><path d="m82.5473 62.6072v-33.2349l-27.6957-15.5782m-15.5096 0-27.6956 15.5782v33.2349m6.6469 10.3869 28.8035 16.2009 17.7253-9.9704 11.0782-6.2327" fill="none" stroke="#fff" stroke-linecap="round" stroke-linejoin="round" stroke-width="8.863"/><path d="m40.4504 37.6812-6.6469 3.8774v15.5096l6.6469 3.8774 6.647 3.8774 6.647-3.8774 6.6469-3.8774v-15.5096l-6.6469-3.8774-6.647-3.8774z" fill="#fff" stroke="#fff" stroke-linecap="round" stroke-linejoin="round" stroke-width="8.863"/><path d="m47.0971 33.8037v-15.5095m13.2939 37.6661 15.5096 8.8626m-42.0974-8.8626-15.5096 8.8626" fill="none" stroke="#fff" stroke-linecap="round" stroke-linejoin="round" stroke-width="8.863"/><path d="m47.0976 18.294c3.6711 0 6.647-2.976 6.647-6.647 0-3.67099-2.9759-6.64694-6.647-6.64694-3.671 0-6.6469 2.97595-6.6469 6.64694 0 3.671 2.9759 6.647 6.6469 6.647z" fill="#fff" stroke="#fff" stroke-linecap="round" stroke-linejoin="round" stroke-width="8.863"/><path d="m11.6467 75.9012c3.671 0 6.647-2.976 6.647-6.647s-2.976-6.6469-6.647-6.6469-6.64694 2.9759-6.64694 6.6469 2.97594 6.647 6.64694 6.647z" fill="#fff" stroke="#fff" stroke-linecap="round" stroke-linejoin="round" stroke-width="8.863"/><path d="m82.5458 75.9012c3.671 0 6.6469-2.976 6.6469-6.647s-2.9759-6.6469-6.6469-6.6469-6.647 2.9759-6.647 6.6469 2.976 6.647 6.647 6.647z" fill="#fff" stroke="#fff" stroke-linecap="round" stroke-linejoin="round" stroke-width="8.863"/></mask><g mask="url(#a)"><path d="m-6.07849-3.86267h53.17569 53.1758v106.35167h-106.35149z" fill="#fff"/></g></svg>

<svg xmlns="http://www.w3.org/2000/svg" width="94" height="94" fill="none" viewBox="0 0 94 94"><mask id="mask0_882_103310" style="mask-type:alpha" width="94" height="94" x="0" y="0" maskUnits="userSpaceOnUse"><path stroke="#fff" stroke-linecap="round" stroke-linejoin="round" stroke-width="8.863" d="M82.5473 62.6072V29.3723L54.8516 13.7941M39.342 13.7941L11.6464 29.3723V62.6072M18.2933 72.9941L47.0968 89.195L64.8221 79.2246L75.9003 72.9919"/><path fill="#fff" stroke="#fff" stroke-linecap="round" stroke-linejoin="round" stroke-width="8.863" d="M40.4504 37.6812L33.8035 41.5586V57.0682L40.4504 60.9456L47.0974 64.823L53.7444 60.9456L60.3913 57.0682V41.5586L53.7444 37.6812L47.0974 33.8038L40.4504 37.6812Z"/><path stroke="#fff" stroke-linecap="round" stroke-linejoin="round" stroke-width="8.863" d="M47.0971 33.8037V18.2942M60.391 55.9603L75.9006 64.8229M33.8032 55.9603L18.2936 64.8229"/><path fill="#fff" stroke="#fff" stroke-linecap="round" stroke-linejoin="round" stroke-width="8.863" d="M47.0976 18.294C50.7687 18.294 53.7446 15.318 53.7446 11.647C53.7446 7.97601 50.7687 5.00006 47.0976 5.00006C43.4266 5.00006 40.4507 7.97601 40.4507 11.647C40.4507 15.318 43.4266 18.294 47.0976 18.294Z"/><path fill="#fff" stroke="#fff" stroke-linecap="round" stroke-linejoin="round" stroke-width="8.863" d="M11.6467 75.9012C15.3177 75.9012 18.2937 72.9252 18.2937 69.2542C18.2937 65.5832 15.3177 62.6073 11.6467 62.6073C7.9757 62.6073 4.99976 65.5832 4.99976 69.2542C4.99976 72.9252 7.9757 75.9012 11.6467 75.9012Z"/><path fill="#fff" stroke="#fff" stroke-linecap="round" stroke-linejoin="round" stroke-width="8.863" d="M82.5458 75.9012C86.2168 75.9012 89.1927 72.9252 89.1927 69.2542C89.1927 65.5832 86.2168 62.6073 82.5458 62.6073C78.8748 62.6073 75.8988 65.5832 75.8988 69.2542C75.8988 72.9252 78.8748 75.9012 82.5458 75.9012Z"/></mask><g mask="url(#mask0_882_103310)"><path fill="#fff" d="M-6.07849 -3.86267H47.0972H100.273V102.489H-6.07849V-3.86267Z"/></g></svg>
